images/item-product-str.svg

<svg width="52" height="24" viewBox="0 0 52 24" fill="none" xmlns="http://www.w3.org/2000/svg">
<path id="Vector 5" d="M2 10.5C1.17157 10.5 0.5 11.1716 0.5 12C0.5 12.8284 1.17157 13.5 2 13.5V10.5ZM51.0607 13.0607C51.6464 12.4749 51.6464 11.5251 51.0607 10.9393L41.5147 1.3934C40.9289 0.807611 39.9792 0.807611 39.3934 1.3934C38.8076 1.97919 38.8076 2.92893 39.3934 3.51472L47.8787 12L39.3934 20.4853C38.8076 21.0711 38.8076 22.0208 39.3934 22.6066C39.9792 23.1924 40.9289 23.1924 41.5147 22.6066L51.0607 13.0607ZM2 13.5H50V10.5H2V13.5Z" fill="#61AA45"/>
</svg>

<svg xmlns="http://www.w3.org/2000/svg" width="52" height="24" fill="none"><path fill="#61AA45" d="M2 10.5a1.5 1.5 0 0 0 0 3v-3Zm49.06 2.56a1.5 1.5 0 0 0 0-2.12l-9.545-9.547a1.5 1.5 0 1 0-2.122 2.122L47.88 12l-8.486 8.485a1.5 1.5 0 1 0 2.122 2.122l9.546-9.546ZM2 13.5h48v-3H2v3Z"/></svg>
